X:257
T:Off She Goes. JC.262
R:Jig
S:John Clare,Poet,Helpstone (1793-1864)
N:No Key sig in MS...Although this exists as a Broadside, Deacon says he
N:cannot trace it as such from any oral sources.Since it exists very
N:commonly in tune books, the inference must be that it was generally
N:known as only a dance
N:tune.CGP.
N:Song text exists. See Deacon.
O:England
A:Northamptonshire
Z:vmp.P. Headford
M:6/8
L:1/8
Q:3/8=120
K:D
F2AG2B|\
ABcd3|F2AG2B|AFDE3|!
F2AG2B|ABcd3:||:!
faf def|eae cde|faf def|ecAA3|!
faf def|eae cde|faf gec|d3d3:|

